packages/kaspersky-hexa-ui-icons/src/iconsSVGs/24/ResizeInput.svg

<svg width="24" height="24" viewBox="0 0 24 24" fill="none" xmlns="http://www.w3.org/2000/svg">
<path fill-rule="evenodd" clip-rule="evenodd" d="M21.7071 5.29289C22.0976 5.68342 22.0976 6.31658 21.7071 6.70711L6.70711 21.7071C6.31658 22.0976 5.68342 22.0976 5.29289 21.7071C4.90237 21.3166 4.90237 20.6834 5.29289 20.2929L20.2929 5.29289C20.6834 4.90237 21.3166 4.90237 21.7071 5.29289ZM21.7071 14.2929C22.0976 14.6834 22.0976 15.3166 21.7071 15.7071L15.7071 21.7071C15.3166 22.0976 14.6834 22.0976 14.2929 21.7071C13.9024 21.3166 13.9024 20.6834 14.2929 20.2929L20.2929 14.2929C20.6834 13.9024 21.3166 13.9024 21.7071 14.2929Z" fill="black"/>
</svg>

<svg xmlns="http://www.w3.org/2000/svg" width="24" height="24" fill="none" viewBox="0 0 24 24"><path fill="#000" fill-rule="evenodd" d="M21.7071 5.2929c.3905.3905.3905 1.0237 0 1.4142l-15 15c-.3905.3905-1.0237.3905-1.4142 0s-.3905-1.0237 0-1.4142l15-15c.3905-.3905 1.0237-.3905 1.4142 0m0 9c.3905.3905.3905 1.0237 0 1.4142l-6 6c-.3905.3905-1.0237.3905-1.4142 0s-.3905-1.0237 0-1.4142l6-6c.3905-.3905 1.0237-.3905 1.4142 0"/></svg>
